X: 01060
T: JOHNNY'S DRUM
C: Bob McQuillen '73
B: Bob's Note Book 1 #60
%R: reel
Z: 2019 John Chambers <jc:trillian.mit.edu>
M: C
L: 1/8
K: G
D \
| DBBA B3A | GBAG ADDD | DBBA BcdB | GBAF G3D |
| DBBA B3A | GBAG ADDD | DBBA Bcde | dBAF G3 :|
|: E \
| EBBA Bdef | gfed edBA | EBBA Bded | cBAG AcBA |
| EBBA Bdef | gfed edBA | B2e2 Beef | gefd e3 :|
%%begintext align
%% For John M. Eneguess
%%endtext

%%sep 1 1 500

%%sep 1 1 500

